!!!!SEGMENT: pl-wtm--a-43-186-99--001-002_fitelberg-grzegorz--szesc-piesni-op-22-no-2-u-mego-okna.krn
!!!cenid: 19xx:97
!!!COM: Fitelberg, Grzegorz
!!!COM-rismID: pe41023683
!!!CDT: 1879-1953
!!!CNT: Polish
!!!GTL: Sześć pieśni Op. 22
!!!OTL: No. 2. U mego okna
!!!OMV: 002
!!!PDT:
!!!AGN: Secular; Song
!!!YEC: Copyright 2022 Narodowy Instytut Fryderyka Chopina (https://polishscores.org)
!!!YEM: License CC-BY-4.0 (https://creativecommons.org/licenses/by/4.0)
!!!SMS-siglum: PL-Wtm
!!!SMS-shelfmark: A-43.186/99
!!!SMS-variant:
!!!SMS-altvar:
!!!SMS-shelfwork: 001-002 G
!!!NIFC-rismSourceID: 1001135590
!!!NIFC-rismChildID: 1001135595
!!!NIFC-islandoraID: pl-wtm:4771
!!!URL-pdf-islandora: https://repozytorium.nifc.pl/islandora/object/pl-wtm%3A4771/datastream/PDF/view
!!!URL-scan: https://polish.musicsources.pl/pl/lokalizacje/galeria/druki-muzyczne/15759/4 @EN{Scan on Polish Music Sources Website} @PL{Skany w portalu Dziedzictwo Muzyki Polskiej w otwartym dostępie}
!!!IIIF:
!!!ONB-nifc:
!!!OMD: Largo assai.
!!!AIN: 1 piano 1 vox
!!!key: none
**kern	**kern	**dynam	**kern	**text	**text	**dynam
*part2	*part2	*part2	*part1	*part1	*part1	*part1
*staff3	*staff2	*	*staff1	*staff1	*staff1	*
*ICklav	*ICklav	*	*ICvox	*	*	*
*Ipiano	*Ipiano	*	*Ivox	*	*	*
*I"Klavier.	*I"Klavier.	*	*I"Singstimme.	*	*	*
*clefF4	*clefG2	*	*clefG2	*	*	*
*k[]	*k[]	*	*k[]	*	*	*
*B:	*B:	*	*B:	*	*	*
*M4/8	*M4/8	*	*M4/8	*	*	*
!	!LO:TX:b:i:t=dolcissimo	!	!	!	!	!
!	!LO:TX:a:i:t=espress.	!LO:DY:rj	!	!	!	!
8r	([8g~\L [8gg	p	8r	.	.	.
=1	=1	=1	=1	=1	=1	=1
(8E-X\L 8B-X 8d	8g\J] 8dd 8gg]	.	8r	.	.	.
*clefG2	*	*	*	*	*	*
!	!	!	!	!	!	!LO:DY:a
!	!	!	!	!	!	!LO:HP:a
[8f#X~\	[8ff#X~\L	.	8f#X/	Vor	U	p <
8e-X\J 8f#] 8b-X	8dd\J 8ff#] 8ddd	.	8b-X\	mei-	me-	.
8r	[8g~\L [8gg	.	8dd\	-nem	-go	.
*clefF4	*	*	*	*	*	*
=2	=2	=2	=2	=2	=2	=2
!	!	!	!	!	!	!LO:HP:a
8E-X\L 8A 8e-X	8g\J] 8cc#X 8gg]	.	4cc#X\	Fen-	o-	[ >
*clefG2	*	*	*	*	*	*
[8f#X~\	[8ff#X\L	.	.	.	.	.
8e-X\J 8f#] 8a 8ee-X	8cc#\J 8ff#] 8ccc#X	.	4a/	-ster	-kna	]
8r	[8g~\L [8gg	.	.	.	.	.
*clefF4	*	*	*	*	*	*
=3	=3	=3	=3	=3	=3	=3
8E-X\ 8A-X 8e-X	8g\J] 8ccn 8gg]	.	(4ccn\	singt	śpie-	.
*clefG2	*	*	*	*	*	*
[8f#X~\L	[8ff#X~\L	.	.	.	.	.
!	!	!	!	!	!	!LO:HP:a
8e-X\J 8f#] 8a-X 8ee-X	8cc\J 8ff#] 8cccn	.	8ee-X\)	.	.	<
*clefF4	*	*	*	*	*	*
8c\L	[8g~\L [8gg	.	8ff\	ein	-wa	[
!!LO:LB:g=original
=4	=4	=4	=4	=4	=4	=4
!	!	!	!	!	!	!LO:HP:a
8D\J 8A-X 8d	8g\J] 8bn 8gg]	.	4ff#X\	Vo-	pta-	>
*clefG2	*	*	*	*	*	*
[8f#X~/L	[8ff#X~\L	.	.	.	.	.
8d/J) 8f#] 8a-X 8dd	8b\J) 8ff#] 8bb	.	4bn\	-gel.	-szek.	]
*clefF4	*	*	*	*	*	*
(8d-X\L	(([8fn~\L 8b [8ffn	.	.	.	.	.
=5	=5	=5	=5	=5	=5	=5
8D-X\J 8A-X 8c	8f\J]) 8cc 8ff]	.	4r	.	.	.
*clefG2	*	*	*	*	*	*
[>8en~/L	[8een~\L	.	.	.	.	.
8d-X/J 8e] 8a-X	8cc\J 8ee] 8ccc	.	4cc\	Still	Ja	.
8r	[8f~\L [8ff	.	.	.	.	.
*clefF4	*	*	*	*	*	*
=6	=6	=6	=6	=6	=6	=6
8D-X\ 8A-- 8d-X	8f\J] 8cc-X 8ff]	.	8.g/	hör	słu-	.
*clefG2	*	*	*	*	*	*
[>8en~/L	[8een~\L	.	.	.	.	.
.	.	.	16g/	ich	-cham	.
8d-X/J 8e] 8a-- 8dd-X	8cc-\J 8ee] 8ccc-X	.	8g/	zu,	go,	.
8r	[8f~\L [8ff	.	8r	.	.	.
*clefF4	*	*	*	*	*	*
=7	=7	=7	=7	=7	=7	=7
8D-X\ 8G-X 8d-X	8f\J] 8b-X 8ff]	.	8r	.	.	.
*clefG2	*	*	*	*	*	*
!	!	!	!	!	!	!LO:HP:a
[>8en~/L	[8een~\L	.	8b-X\	mein	me	<
8d-X/J 8e] 8g-X 8dd-X	8b-\J 8ee] 8bb-X	.	8a-X/	Herz	ser-	[
*clefF4	*	*	*	*	*	*
!	!	!	!	!	!	!LO:HP:a
8B-X\L	[8f\L [8ff	.	8g-X/	ver-	-ce	>
!!LO:LB:g=original
=8	=8	=8	=8	=8	=8	=8
8C\J 8G-X 8c	8f\J] 8an 8ff]	.	8f/	-geht.	drży...	]
*clefG2	*	*	*	*	*	*
[8e~/L	[8een~\L	.	8r	.	.	.
8c/J) 8e] 8g-X 8cc	8an\J) 8ee] 8aan	.	4r	.	.	.
*clefF4	*	*	*	*	*	*
(8c-X\L	([8e-X~\L 8a [8ee-X	.	.	.	.	.
=9	=9	=9	=9	=9	=9	=9
8C-X\J 8G-X 8B-X	8e-\J] 8b-X 8ee-]	.	8r	.	.	.
*clefG2	*	*	*	*	*	*
[>8dn~/L	[8ddn~\L	.	8dd\	Er	Dzie-	.
8c-X/J 8d] 8g-X	8b--\J 8dd] 8bb--	.	8an/	singt	-cię-	.
8r	[8e-X~\L [8ee-X	.	8a/	was	-cych	.
*clefF4	*	*	*	*	*	*
=10	=10	=10	=10	=10	=10	=10
!	!	!	!	!	!	!LO:HP:a
8C-X\ 8F-X 8A-X	8e-\J] 8a-X 8ee-]	.	8en/	ich	e-	<
*clefG2	*	*	*	*	*	*
[>8d~/L	[8ddn~\L	.	8f#X/	als	-cha	.
8c-X/J 8d] 8f-X	8a-X\J 8dd] 8aa-X	.	8g#X/	Kind	bu-	.
8r	[8e-X~/L [8ee-X	.	8b-X\	be-	-dzi	[[
*clefF4	*	*	*	*	*	*
!!LO:LB:g=original
=11	=11	=11	=11	=11	=11	=11
*	*^	*	*	*	*	*
4BB-X\ 4E-X 4An	8e-/J] 8ee-]	4f#X\	<	4cc\	-sass,	snów,	.
.	4d~/ 4dd	.	.	.	.	.	.
4AAn\ 4F 4Bn	.	4g#X\	.	4r	.	.	.
.	[<8e-X~/L [8ee-X	.	[[	.	.	.	.
*	*v	*v	*	*	*	*	*
=12	=12	=12	=12	=12	=12	=12
!	!LO:TX:b:t=rit._:ext=ud	!	!	!	!	!
8GG\ 8F 8B	8e-/J] 8an 8ee-]	pp	2r	.	.	.
*clefG2	*	*	*	*	*	*
[>8d~/L	[>8dd~>/L	.	.	.	.	.
8G/J) 8d] 8f 8b	8a/J) 8dd] 8aa	.	.	.	.	.
!	!LO:TX:b:t=tempo	!	!	!	!	!
8r	(>[8e-X~>/L [8ee-X	.	.	.	.	.
*clefF4	*	*	*	*	*	*
=13	=13	=13	=13	=13	=13	=13
(4CC-X/ 4GG-X	8e-/J] 8ee-]	pp	8r	.	.	.
!	!	!	!	!	!	!LO:DY:a
.	4d~>/ 4dd	.	8g-X/	und	snów	pp
!	!	!	!	!	!	!LO:HP:a
4C-X\ 4G-X	.	.	8g-/	dann	za-	<
.	[8e-X~>/L [8ee-X	<	8g-/	ver-	-po-	[[
*clefG2	*	*	*	*	*	*
=14	=14	=14	=14	=14	=14	=14
!	!	!	!	!	!	!LO:HP:a
4c-X/ 4a--	8e-/J] 8ee-]	[	2a--/	-ges-	-mnia-	>]
.	4d/ 4dd	.	.	.	.	.
4cc-X\ 4aa--	.	.	.	.	.	.
.	[<8e-X/ [<8ee-X	>	.	.	.	.
=15	=15	=15	=15	=15	=15	=15
*	*^	*	*	*	*	*
2c-X;</) 2g-X 2cc-X	2gg-X;/) 2ccc-X 2ggg-X	2e-\] 2ee-]	]	2g-X;/	-sen.	-nych.	.
*	*v	*v	*	*	*	*	*
==	==	==	==	==	==	==
*-	*-	*-	*-	*-	*-	*-
!!!system-decoration: s1{(s2,s3)}
!!!RDF**kern: < = below
!!!RDF**kern: > = above
!!!ENC: Anastazja Marusiak
!!!END: 2023-10-05
!!!EED: Marta Chmielewska
!!!EEV: 2023-10-19
